public/urbs-logo.svg

<svg
    width="56"
    height="24"
    viewBox="0 0 56 24"
    fill="none"
    xmlns="http://www.w3.org/2000/svg"
>
<path
        d="M32.476 16H31.146V9.014H32.476V16ZM31.216 12.71L31.23 13.13C31.2207 13.2513 31.188 13.4333 31.132 13.676C31.0853 13.9093 31.0013 14.166 30.88 14.446C30.768 14.726 30.6093 14.9967 30.404 15.258C30.208 15.5193 29.956 15.734 29.648 15.902C29.34 16.07 28.9667 16.154 28.528 16.154C28.2293 16.154 27.9213 16.112 27.604 16.028C27.296 15.944 27.0113 15.804 26.75 15.608C26.4887 15.412 26.2787 15.146 26.12 14.81C25.9613 14.4647 25.882 14.0353 25.882 13.522V9.014H27.226V13.242C27.226 13.6713 27.2913 14.0073 27.422 14.25C27.562 14.4927 27.758 14.6653 28.01 14.768C28.262 14.8707 28.5467 14.922 28.864 14.922C29.3493 14.922 29.7553 14.8053 30.082 14.572C30.418 14.3293 30.6793 14.04 30.866 13.704C31.0527 13.3587 31.1693 13.0273 31.216 12.71ZM34.2355 9.014H35.5795V16H34.2355V9.014ZM37.9455 10.204C37.4602 10.204 37.0448 10.316 36.6995 10.54C36.3635 10.764 36.0928 11.0393 35.8875 11.366C35.6915 11.6927 35.5608 12.0053 35.4955 12.304L35.4815 11.506C35.4908 11.4127 35.5142 11.268 35.5515 11.072C35.5982 10.8667 35.6775 10.638 35.7895 10.386C35.9015 10.134 36.0508 9.896 36.2375 9.672C36.4242 9.43867 36.6575 9.24733 36.9375 9.098C37.2175 8.94867 37.5535 8.874 37.9455 8.874V10.204ZM43.3854 16.14C42.8347 16.14 42.3774 16.028 42.0134 15.804C41.6587 15.5707 41.3741 15.2673 41.1594 14.894C40.9541 14.5207 40.8047 14.124 40.7114 13.704C40.6181 13.284 40.5714 12.8873 40.5714 12.514C40.5714 12.01 40.6134 11.5387 40.6974 11.1C40.7907 10.6613 40.9401 10.274 41.1454 9.938C41.3507 9.602 41.6354 9.34067 41.9994 9.154C42.3634 8.96733 42.8254 8.874 43.3854 8.874C44.0107 8.874 44.5661 9.03267 45.0514 9.35C45.5461 9.658 45.9334 10.0873 46.2134 10.638C46.4934 11.1793 46.6334 11.8047 46.6334 12.514C46.6334 13.2233 46.4887 13.8533 46.1994 14.404C45.9101 14.9453 45.5181 15.37 45.0234 15.678C44.5381 15.986 43.9921 16.14 43.3854 16.14ZM43.0074 14.978C43.4554 14.978 43.8474 14.8753 44.1834 14.67C44.5287 14.4553 44.7947 14.166 44.9814 13.802C45.1774 13.4287 45.2754 12.9993 45.2754 12.514C45.2754 11.7953 45.0747 11.2027 44.6734 10.736C44.2814 10.2693 43.7261 10.036 43.0074 10.036C42.5221 10.036 42.1067 10.1387 41.7614 10.344C41.4254 10.5493 41.1687 10.8387 40.9914 11.212C40.8141 11.5853 40.7254 12.0193 40.7254 12.514C40.7254 12.9713 40.8094 13.3867 40.9774 13.76C41.1547 14.1333 41.4114 14.432 41.7474 14.656C42.0927 14.8707 42.5127 14.978 43.0074 14.978ZM40.7254 6.214V14.474C40.7254 14.6887 40.7114 14.9453 40.6834 15.244C40.6647 15.5427 40.6461 15.7947 40.6274 16H39.3954V6.214H40.7254ZM47.7088 13.732H48.9408C48.9874 14.1053 49.1554 14.4133 49.4448 14.656C49.7341 14.8893 50.1401 15.006 50.6628 15.006C50.9988 15.006 51.2601 14.9687 51.4468 14.894C51.6334 14.81 51.7641 14.698 51.8388 14.558C51.9228 14.418 51.9648 14.264 51.9648 14.096C51.9648 13.8813 51.9088 13.718 51.7968 13.606C51.6848 13.4847 51.5261 13.3867 51.3208 13.312C51.1154 13.228 50.8728 13.1487 50.5928 13.074C50.2848 12.99 49.9768 12.892 49.6688 12.78C49.3608 12.668 49.0761 12.5327 48.8148 12.374C48.5628 12.2153 48.3574 12.0193 48.1988 11.786C48.0494 11.5433 47.9748 11.2493 47.9748 10.904C47.9748 10.6147 48.0354 10.344 48.1568 10.092C48.2874 9.84 48.4694 9.62533 48.7028 9.448C48.9454 9.26133 49.2254 9.12133 49.5428 9.028C49.8601 8.92533 50.2101 8.874 50.5928 8.874C51.1248 8.874 51.5728 8.972 51.9368 9.168C52.3008 9.35467 52.5761 9.62067 52.7628 9.966C52.9588 10.3113 53.0614 10.708 53.0708 11.156H51.8948C51.8294 10.764 51.6941 10.4793 51.4888 10.302C51.2834 10.1153 50.9754 10.022 50.5648 10.022C50.1634 10.022 49.8554 10.1013 49.6408 10.26C49.4261 10.4187 49.3188 10.6333 49.3188 10.904C49.3188 11.1093 49.3934 11.2773 49.5428 11.408C49.6921 11.5293 49.8928 11.6367 50.1448 11.73C50.3968 11.8233 50.6814 11.9213 50.9988 12.024C51.2974 12.1267 51.5821 12.234 51.8528 12.346C52.1328 12.4487 52.3801 12.5747 52.5948 12.724C52.8188 12.864 52.9914 13.0507 53.1128 13.284C53.2434 13.508 53.3088 13.788 53.3088 14.124C53.3088 14.5347 53.2061 14.894 53.0008 15.202C52.7954 15.5007 52.4968 15.734 52.1048 15.902C51.7221 16.07 51.2554 16.154 50.7048 16.154C50.2008 16.154 49.7714 16.0933 49.4168 15.972C49.0714 15.8507 48.7774 15.692 48.5348 15.496C48.3014 15.3 48.1194 15.0947 47.9888 14.88C47.8674 14.656 47.7834 14.4413 47.7368 14.236C47.6994 14.0307 47.6901 13.8627 47.7088 13.732Z"
        fill="black"
    />
<path
        d="M6.00156 8.4001C7.32705 8.4001 8.40156 7.32558 8.40156 6.0001C8.40156 4.67461 7.32705 3.6001 6.00156 3.6001C4.67608 3.6001 3.60156 4.67461 3.60156 6.0001C3.60156 7.32558 4.67608 8.4001 6.00156 8.4001Z"
        fill="#6E4DAB"
    />
<path
        d="M12.625 10.4902L15.9209 7.19336C16.1323 7.56119 16.4382 7.86618 16.8057 8.07812L13.5098 11.375H21V12.625H13.5098L16.8057 15.9209C16.4382 16.1327 16.1324 16.4381 15.9209 16.8057L12.625 13.5098V21H11.375V13.5098L8.08008 16.8037C7.86817 16.4363 7.56302 16.1303 7.19531 15.9189L10.4902 12.625H3V11.375H10.4902L5.55762 6.44238L6.44238 5.55762L11.375 10.4902V3H12.625V10.4902Z"
        fill="#6E4DAB"
        fill-opacity="0.32"
    />
<path
        d="M18.0016 8.4001C19.327 8.4001 20.4016 7.32558 20.4016 6.0001C20.4016 4.67461 19.327 3.6001 18.0016 3.6001C16.6761 3.6001 15.6016 4.67461 15.6016 6.0001C15.6016 7.32558 16.6761 8.4001 18.0016 8.4001Z"
        fill="#6E4DAB"
        fill-opacity="0.6"
    />
<path
        d="M6.00156 20.4001C7.32705 20.4001 8.40156 19.3256 8.40156 18.0001C8.40156 16.6746 7.32705 15.6001 6.00156 15.6001C4.67608 15.6001 3.60156 16.6746 3.60156 18.0001C3.60156 19.3256 4.67608 20.4001 6.00156 20.4001Z"
        fill="#6E4DAB"
        fill-opacity="0.6"
    />
<path
        d="M12.0016 15.4001C13.8793 15.4001 15.4016 13.8779 15.4016 12.0001C15.4016 10.1223 13.8793 8.6001 12.0016 8.6001C10.1238 8.6001 8.60156 10.1223 8.60156 12.0001C8.60156 13.8779 10.1238 15.4001 12.0016 15.4001Z"
        fill="#6E4DAB"
    />
<path
        d="M18.0016 20.4001C19.327 20.4001 20.4016 19.3256 20.4016 18.0001C20.4016 16.6746 19.327 15.6001 18.0016 15.6001C16.6761 15.6001 15.6016 16.6746 15.6016 18.0001C15.6016 19.3256 16.6761 20.4001 18.0016 20.4001Z"
        fill="#6E4DAB"
        fill-opacity="0.6"
    />
</svg>

<svg
    xmlns="http://www.w3.org/2000/svg"
    width="24"
    height="24"
    viewBox="0 0 24 24"
    fill="none"
>
  <title>Urbs logo</title>
  <path
        fill="#6E4DAB"
        d="M6.002 8.4a2.4 2.4 0 1 0 0-4.8 2.4 2.4 0 0 0 0 4.8Z"
    />
  <path
        fill="#6E4DAB"
        fill-opacity="0.32"
        d="m12.625 10.49 3.296-3.297c.211.368.517.673.885.885l-3.296 3.297H21v1.25h-7.49l3.296 3.296a2.409 2.409 0 0 0-.885.885l-3.296-3.296V21h-1.25v-7.49L8.08 16.804a2.408 2.408 0 0 0-.885-.885l3.295-3.294H3v-1.25h7.49L5.558 6.442l.884-.884 4.933 4.932V3h1.25v7.49Z"
    />
  <path
        fill="#6E4DAB"
        fill-opacity="0.6"
        d="M18.002 8.4a2.4 2.4 0 1 0 0-4.8 2.4 2.4 0 0 0 0 4.8ZM6.002 20.4a2.4 2.4 0 1 0 0-4.8 2.4 2.4 0 0 0 0 4.8Z"
    />
  <path
        fill="#6E4DAB"
        d="M12.002 15.4a3.4 3.4 0 1 0 0-6.8 3.4 3.4 0 0 0 0 6.8Z"
    />
  <path
        fill="#6E4DAB"
        fill-opacity="0.6"
        d="M18.002 20.4a2.4 2.4 0 1 0 0-4.8 2.4 2.4 0 0 0 0 4.8Z"
    />
</svg>
